X: 14710
T: Gan Ainm
R: jig
M: 6/8
K: Gmajor
d|B2 G Bdg|B2 G Bdg|F2 D FDA|FDA cAF|
B2 G Bdg|B2 G Bdg|F2 D FDA|G3 G2:|
d|e2 c ecg|d2 B dBg|cAc BGB|BcA G2 d|
e2 c ecg|d2 B dBg|ece fdf|g3 f/g/a/g/f/e/d/B/:|

